_includes/icons/ios-usb-connector.svg

<svg fill="#666" height="50" viewBox="0 0 50 50" width="50" xmlns="http://www.w3.org/2000/svg"><path d="m25.015625 1.953125-.886719 1.550781-4.859375 8.511719 4.730469-.039062v20.105468l-7.585937-5.296875c-.261719-.1875-.414063-.484375-.414063-.804687v-1.125c1.714844-.449219 3-2.003906 3-3.855469 0-2.199219-1.800781-4-4-4s-4 1.800781-4 4c0 1.851563 1.285156 3.40625 3 3.855469v1.125c0 .960937.464844 1.867187 1.246094 2.425781l.003906.003906 8.75 6.109375v1.574219c-2.828125.476563-5 2.945313-5 5.90625 0 3.300781 2.699219 6 6 6s6-2.699219 6-6c0-2.960937-2.171875-5.429687-5-5.90625v-5.527344l8.542969-5.125c.902344-.542968 1.457031-1.523437 1.457031-2.578125v-1.863281h3v-8h-8v8h3v1.863281c0 .355469-.183594.679688-.484375.863282l-7.515625 4.507812v-16.277344l4.496094-.035156zm-.03125 4.09375 2.144531 3.90625-4.394531.03125zm8.015625 8.953125h4v4h-4zm-18 4c1.117188 0 2 .882813 2 2 0 1.117188-.882812 2-2 2-1.117187 0-2-.882812-2-2 0-1.117187.882813-2 2-2zm10 19c2.222656 0 4 1.777344 4 4s-1.777344 4-4 4-4-1.777344-4-4 1.777344-4 4-4z"/></svg>

<svg xmlns="http://www.w3.org/2000/svg" viewBox="0 0 50 50" width="50" height="50" fill="#666"><path d="M 25.015625 1.953125 L 24.128906 3.503906 L 19.269531 12.015625 L 24 11.976563 L 24 32.082031 L 16.414063 26.785156 C 16.152344 26.597656 16 26.300781 16 25.980469 L 16 24.855469 C 17.714844 24.40625 19 22.851563 19 21 C 19 18.800781 17.199219 17 15 17 C 12.800781 17 11 18.800781 11 21 C 11 22.851563 12.285156 24.40625 14 24.855469 L 14 25.980469 C 14 26.941406 14.464844 27.847656 15.246094 28.40625 L 15.25 28.410156 L 24 34.519531 L 24 36.09375 C 21.171875 36.570313 19 39.039063 19 42 C 19 45.300781 21.699219 48 25 48 C 28.300781 48 31 45.300781 31 42 C 31 39.039063 28.828125 36.570313 26 36.09375 L 26 30.566406 L 34.542969 25.441406 C 35.445313 24.898438 36 23.917969 36 22.863281 L 36 21 L 39 21 L 39 13 L 31 13 L 31 21 L 34 21 L 34 22.863281 C 34 23.21875 33.816406 23.542969 33.515625 23.726563 L 26 28.234375 L 26 11.957031 L 30.496094 11.921875 Z M 24.984375 6.046875 L 27.128906 9.953125 L 22.734375 9.984375 Z M 33 15 L 37 15 L 37 19 L 33 19 Z M 15 19 C 16.117188 19 17 19.882813 17 21 C 17 22.117188 16.117188 23 15 23 C 13.882813 23 13 22.117188 13 21 C 13 19.882813 13.882813 19 15 19 Z M 25 38 C 27.222656 38 29 39.777344 29 42 C 29 44.222656 27.222656 46 25 46 C 22.777344 46 21 44.222656 21 42 C 21 39.777344 22.777344 38 25 38 Z"/></svg>
